storage/app/icons/phosphoricons/light/cell-signal-slash-light.svg

<svg xmlns="http://www.w3.org/2000/svg" viewBox="0 0 256 256" fill="currentColor"><path d="M86,152v48a6,6,0,0,1-12,0V152a6,6,0,0,1,12,0ZM40,186a6,6,0,0,0-6,6v8a6,6,0,0,0,12,0v-8A6,6,0,0,0,40,186Zm172.44,26L52.44,36A6,6,0,0,0,43.56,44L114,121.52V200a6,6,0,0,0,12,0V134.72l28,30.8V200a6,6,0,0,0,12,0V178.72L203.56,220a6,6,0,0,0,8.88-8.08ZM160,121.63a6,6,0,0,0,6-6V72a6,6,0,0,0-12,0v43.63A6,6,0,0,0,160,121.63Zm40,44a6,6,0,0,0,6-6V32a6,6,0,0,0-12,0V159.63A6,6,0,0,0,200,165.63Z"/></svg>

<svg xmlns="http://www.w3.org/2000/svg" fill="currentColor" viewBox="0 0 256 256"><path d="M86 152v48a6 6 0 0 1-12 0v-48a6 6 0 0 1 12 0m-46 34a6 6 0 0 0-6 6v8a6 6 0 0 0 12 0v-8a6 6 0 0 0-6-6m172.44 26-160-176a6 6 0 0 0-8.88 8L114 121.52V200a6 6 0 0 0 12 0v-65.28l28 30.8V200a6 6 0 0 0 12 0v-21.28L203.56 220a6 6 0 0 0 8.88-8.08ZM160 121.63a6 6 0 0 0 6-6V72a6 6 0 0 0-12 0v43.63a6 6 0 0 0 6 6m40 44a6 6 0 0 0 6-6V32a6 6 0 0 0-12 0v127.63a6 6 0 0 0 6 6"/></svg>
